/* XPM */
static char *_8cda99e377b4980f87a3d74a52d65947B4iIhaJJGEhg1rp[] = {
/* columns rows colors chars-per-pixel */
"15 18 8 1 ",
"  c None",
". c #0E0D0E",
"X c #D2202C",
"o c #EADFD1",
"O c #7C776F",
"+ c #B3AAA1",
"@ c #0A7030",
"# c #EBA724",
/* pixels */
" ...           ",
" .X......      ",
" ..XXXXX..     ",
"  ...XXXX.     ",
"   ...XX.....  ",
"   .oooOOOOO.  ",
"   .o......... ",
"   .O.ooo++++. ",
"   .O.o.+.+.+. ",
"   .O.+.+.+.+. ",
"   .O.+.+.+.+. ",
"   .O.+++++++. ",
"  ............ ",
"  .@@@######.  ",
" ..@@@#......  ",
" .@@@@#.OOOO.  ",
" .#####.OOOO.  ",
" ............  "
};
