/* XPM */
static char *fc8e3b1e51eb4f4db613f10a6fd0b43d0ZarLuZuYGmRzIOX[] = {
/* columns rows colors chars-per-pixel */
"64 64 179 2 ",
"   c #818181",
".  c #808080",
"X  c gray51",
"o  c #838383",
"O  c gray45",
"+  c #5A5A5A",
"@  c #414141",
"#  c #282828",
"$  c #1B1B1B",
"%  c gray50",
"&  c #7C7C7C",
"*  c #797979",
"=  c #767676",
"-  c #6C6C68",
";  c #5D5C52",
":  c #4E4D3C",
">  c #3F3D26",
",  c #38361B",
"<  c gray46",
"1  c gray47",
"2  c #7B7B7B",
"3  c #7E7E7E",
"4  c DimGray",
"5  c #5F5F5F",
"6  c #636143",
"7  c #686533",
"8  c #6E6A23",
"9  c #716C1B",
"0  c #686868",
"q  c #727272",
"w  c gray35",
"e  c #494949",
"r  c #837D29",
"t  c #9D9520",
"y  c #AAA11B",
"u  c #585858",
"i  c gray20",
"p  c #CBC11D",
"a  c #E3D71B",
"s  c #747474",
"d  c #6C6A69",
"f  c #5D5753",
"g  c #4D433D",
"h  c #3D3026",
"j  c #4F3F1B",
"k  c #81701B",
"l  c #B3A21B",
"z  c #E5D31B",
"x  c #FEEC1B",
"c  c #FFED1B",
"v  c #FFEE1B",
"b  c #FFF01B",
"n  c #FFF11B",
"m  c #E6DA1B",
"M  c #B4AB1B",
"N  c #827C1B",
"B  c #504D1B",
"V  c #5B5B5B",
"C  c #615043",
"Z  c #654833",
"A  c #6A4023",
"S  c #7E511B",
"D  c #A27A1B",
"F  c #C7A31B",
"G  c #EBCC1B",
"H  c #FDE11B",
"J  c #FEE31B",
"K  c #FEE71B",
"L  c #EDE11B",
"P  c #CAC01B",
"I  c #A69E1B",
"U  c #7E4C29",
"Y  c #955020",
"T  c #AD631B",
"R  c #C4841B",
"E  c #DAA41B",
"W  c #F1C51B",
"Q  c #FCD51B",
"!  c #FDD91B",
"~  c #FDE01B",
"^  c #F4E81B",
"/  c #DFD41B",
"(  c #C1611D",
")  c #DC751B",
"_  c #E58D1B",
"`  c #EEA51B",
"'  c #F7BE1B",
"]  c #FBCA1B",
"[  c #FCCF1B",
"{  c #FBEF1B",
"}  c #36261B",
"|  c #6C3C1B",
" . c #A1531B",
".. c #D7691B",
"X. c #F37E1B",
"o. c #F5921B",
"O. c #F8A61B",
"+. c #FABA1B",
"@. c #FBC51B",
"#. c #FBC61B",
"$. c #FBC81B",
"%. c #FBC91B",
"&. c #FCD31B",
"*. c #FDDD1B",
"=. c #E2D71B",
"-. c #A9A11B",
";. c #706C1B",
":. c #37361B",
">. c #FCCA1B",
",. c #FDD61B",
"<. c #FCD71B",
"1. c #FDDE1B",
"2. c #FDDF1B",
"3. c #FCCD1B",
"4. c #FDD51B",
"5. c #FEE11B",
"6. c #FFEC1B",
"7. c #FBC41B",
"8. c #FAC31B",
"9. c #FAC51B",
"0. c #FCCE1B",
"q. c #FAC01B",
"w. c #F9B81B",
"e. c #F8B01B",
"r. c #F7A71B",
"t. c #F8AB1B",
"y. c #F9BA1B",
"u. c #FABC1B",
"i. c #F8AC1B",
"p. c #F69C1B",
"a. c #F58C1B",
"s. c #F5911B",
"d. c #F4841B",
"f. c #F7A31B",
"g. c #FDE21B",
"h. c #FABB1B",
"j. c #F8AA1B",
"k. c #F6981B",
"l. c #F4871B",
"z. c #F48B1B",
"x. c #F7A41B",
"c. c #FABD1B",
"v. c #FCD61B",
"b. c #FABE1B",
"n. c #F9B11B",
"m. c #F7A51B",
"M. c #FBC01B",
"N. c #FAB91B",
"B. c #FBC31B",
"V. c #F9B31B",
"C. c #F37D1B",
"Z. c #F58E1B",
"A. c #F7A01B",
"S. c #F37A1B",
"D. c #F6931B",
"F. c #F2781B",
"G. c #F37F1B",
"H. c #F2751B",
"J. c #DA6A1B",
"K. c #E16D1B",
"L. c #E8701B",
"P. c #EF731B",
"I. c #4D433C",
"U. c #654733",
"Y. c #7D4C29",
"T. c #AB571B",
"R. c #C05F1B",
"E. c #D4671B",
"W. c #837E29",
"Q. c #696533",
"!. c #4F4D3D",
"~. c #5C5652",
"^. c #614F43",
"/. c #7C431B",
"(. c #9E511B",
"). c #5E5D53",
"_. c #6C6A68",
"`. c #4D301B",
"'. c #6D6C69",
/* pixels */
"            . . . . . .   .     . .         . . . . . . . . . . . . . . . . . . . . . . . . . . . . . . . . . . . .             ",
"            . . . .     .       . .         . . . . . . . . . . . . . . . . . . . . . . . . . . . . . . . . . . . .             ",
"            . . . . .           . . . . . . . . . . . . . . . . . . . . . . . . . . . . . . . . . . . . . . . . . . . . . . . . ",
"            .     . . .       . . . . . . . . . . . . . . . . . . . . . . . . . . . . . . . . . . . . . . . . . . . . . . . . . ",
"                  X .   o   X   . . . . . . . . . . . . . . . . . . . . . . . . . . . . . . . . . . . . . . . . . . . . . . . . ",
"                .           . . . . . . . . . . . . . . . . . . . . . . . . . . . . . . . . . . . . . . . . . . . . . . . . . . ",
".     .       .     . X   . . . . . . . . . . . . . . . . . . . . . . . . . . . . . . . . . . . . . . . . . . . . . . . . . . . ",
". .             X   X .         . . . . . . . . . . . . . . . . . . . . . . . . . . . . . . . . . . . . . . . . . . . . . . . . ",
". . .       .   .     .         . . . . . . . . . . . . . . . . . . . . . . . . . . . . . . . . . . . . . . . . . . . . . . . . ",
"  . . X .     .   .   X     .   . . . . . . . . . . . . . . . . . . . . . . . . . . . . . . . . . . . . . . . . . . . . . . . . ",
".         .                   . . . . . . . . . . . . . . . . . . . . . . . . . . . . . . . . . . . . . . . . . . . . . . . . . ",
"  .       .     .   X     .   . . . . . . . . . . . . . . . . . . . . . . . . . . . . . . . . . . . . . . . . . . . . . . . . . ",
".             .       . . .     . . . . . . O + @ # $ $ $ $ $ $ $ $ $ $ $ $ # @ + O . . . . . . . . . . . . . . . . . . . . . . ",
"      .     X .     X   .   X . . . . . . . O + @ # $ $ $ $ $ $ $ $ $ $ $ $ # @ + O . . . . . . . . . . . . . . . . . . . . . . ",
"  .       . .     . X . .     . . . % & * = - ; : > , , , , , , , , , , , , > : ; - < 1 2 3 . . . . . . . .         . . . . . . ",
"    X .     . . . . X . .     . . . & O 4 5 ; 6 7 8 9 9 9 9 9 9 9 9 9 9 9 9 8 7 6 ; 5 0 q 2 . . . . . . . .         . . . . . . ",
"    . . . . . . . . . . . . . . . . * 4 w e : 7 r t y y y y y y y y y y y y t r 7 : e u 0 1 . . . . . . . .         . . . . . . ",
"    . . . . . . . . . . . . . . . . = 5 e i > 8 t p a a a a a a a a a a a a p t 8 > i e 5 < . . . . . . . .         . . . . . . ",
"    . . . . . . . . . . . .     s s d f g h j k l z x x x x x x x x c v b n m M N B > : ; - O O . . . . . .                     ",
"    . . . . . . . . . . . .     V V f C Z A S D F G H H H H H H H H J K x b L P I N 8 7 6 ; + + . . . . . .                     ",
"    . . . . . . . . . . . .     @ @ g Z U Y T R E W Q Q Q Q Q Q Q Q ! ~ K v ^ / P M t r 7 : @ @ . . . . . .                     ",
"    . . . . . . . . . . . .     # # h A Y ( ) _ ` ' ] ] ] ] ] ] ] ] [ ! J c { ^ L m p t 8 > # # . . . . . .                     ",
". . . . . . . . . . . . . . . . $ $ } |  ...X.o.O.+.@.#.$.%.%.$.#.@.%.&.*.K c v b n =.-.;.:.$ $ . . . . . . . . . . . . . . . . ",
". . . . . . . . . . . . . . . . $ $ } |  ...X.o.O.+.#.>.[ &.&.[ >.#.$.[ ,.*.J K x b =.-.;.:.$ $ . . . . . . . . . . . . . . . . ",
". . . . . . . . . . . . . . . . $ $ } |  ...X.o.O.+.$.[ ,.*.*.,.[ $.#.>.[ &.! ~ K v =.-.;.:.$ $ . . . . . . . . . . . . . . . . ",
". . . . . . . . . . . . . . . . $ $ } |  ...X.o.O.+.%.&.*.K K *.&.%.@.#.$.%.[ ! J c =.-.;.:.$ $ . . . . . . . . . . . . . . . . ",
". . . . . . . . . . . . . . . . $ $ } |  ...X.o.O.+.$.[ <.1.2.! &.3.%.$.#.@.>.4.5.6.=.-.;.:.$ $     . . . . . . . . . . . . . . ",
". . . . . . . . . . . . . . . . $ $ } |  ...X.o.O.+.7.7.8.8.9.] 0.&.&.[ >.#.>.4.5.6.=.-.;.:.$ $     . . . . . . . . . . . . . . ",
". . . . . . . . . . . . . . . . $ $ } |  ...X.o.O.+.q.w.e.r.t.y.] ! *.,.[ $.>.4.5.6.=.-.;.:.$ $     . . . . . . . . . . . . . . ",
". . . . . . . . . . . . . . . . $ $ } |  ...X.o.O.+.u.i.p.a.s.t.9.2.K *.&.%.>.4.5.6.=.-.;.:.$ $     . . . . . . . . . . . . . . ",
". . . . . . . . . . . . . . . . $ $ } |  ...X.o.O.+.+.O.o.X.d.f.8.g.x H Q ] >.4.5.6.=.-.;.:.$ $             . . . . . . . . . . ",
". . . . . . . . . . . . . . . . $ $ } |  ...X.o.O.+.+.O.o.X.d.f.8.g.x H Q ] >.4.5.6.=.-.;.:.$ $             . . . . . . . . . . ",
". . . . . . . . . . . . . . . . $ $ } |  ...X.o.O.+.+.O.o.X.d.f.8.g.x H Q ] >.4.5.6.=.-.;.:.$ $             . . . . . . . . . . ",
". . . . . . . . . . . . . . . . $ $ } |  ...X.o.O.+.+.O.o.X.d.f.8.g.x H Q ] >.4.5.6.=.-.;.:.$ $             . . . . . . . . . . ",
". . . . . . . . . . . . . . . . $ $ } |  ...X.o.O.+.h.j.k.l.z.x.c.v.1.<.[ $.>.4.5.6.=.-.;.:.$ $             . . . . . . . . . . ",
". . . . . . . . . . . . . . . . $ $ } |  ...X.o.O.+.b.n.m.k.k.x.e.c.8.8.7.7.>.4.5.6.=.-.;.:.$ $             . . . . . . . . . . ",
". . . . . . . . . . . . . . . . $ $ } |  ...X.o.O.+.M.N.n.j.O.m.x.x.r.e.w.q.>.4.5.6.=.-.;.:.$ $             . . . . . . . . . . ",
". . . . . . . . . . . . . . . . $ $ } |  ...X.o.O.+.B.M.b.h.V.O.k.z.a.p.i.u.>.4.5.6.=.-.;.:.$ $             . . . . . . . . . . ",
". . . . . . . . . . . . . . . . $ $ } |  ...C.Z.A.n.h.b.M.B.h.j.k.l.l.k.j.h.>.4.5.6.=.-.;.:.$ $             . . . . . . . . . . ",
". . . . . . . . . . . . . . . . $ $ } |  ...S.l.D.A.j.n.N.M.b.n.m.k.k.m.n.b.>.4.5.6.=.-.;.:.$ $             . . . . . . . . . . ",
". . . . . . . . . . . . . . . . $ $ } |  ...F.G.l.Z.k.m.n.b.M.N.n.j.j.n.N.M.>.4.5.6.=.-.;.:.$ $             . . . . . . . . . . ",
". . . . . . . . . . . . . . . . $ $ } |  ...H.F.S.C.l.k.j.h.B.M.b.h.h.b.M.B.>.4.5.6.=.-.;.:.$ $             . . . . . . . . . . ",
". . . . . . . . . . . . . . . . # # h A Y ( J.K.L.P.C.Z.A.n.+.+.+.+.+.+.+.+.' W G z p t 8 > # #             . . . . . . . . . . ",
". . . . . . . . . . . . . . . . @ @ I.U.Y.Y T.R.E.L.S.l.D.A.O.O.O.O.O.O.O.O.` E F l t W.Q.!.@ @             . . . . . . . . . . ",
". . . . . . . . . . . . . . . . + + ~.^.U.A /.(.R.K.F.G.l.Z.o.o.o.o.o.o.o.o._ R D k 8 Q.6 ).V V             . . . . . . . . . . ",
". . . . . . . . . . . . . . . . O O _.~.I.h `./.T.J.H.F.S.C.X.X.X.X.X.X.X.X.) T S j > !.).'.s s             . . . . . . . . . . ",
". . . . . . . . . . . . . . . . . . < 5 e i h A Y ( ........................( Y A h i e 5 =         . . . . . . . . . . . . . . ",
". . . . . . . . . . . . . . . . . . 1 0 u e I.U.Y.Y  . . . . . . . . . . . .Y U Z g e w 4 *         . . . . . . . . . . . . . . ",
". . . . . . . . . . . . . . . . . . 2 q 0 5 ~.^.U.A | | | | | | | | | | | | A Z C f 5 4 O &         . . . . . . . . . . . . . . ",
". . . . . . . . . . . . . . . . . . 3 2 1 < _.~.I.h } } } } } } } } } } } } h g f d = * & %         . . . . . . . . . . . . . . ",
". . . . . . . . . . . . . . . . . . . . . . O + @ # $ $ $ $ $ $ $ $ $ $ $ $ # @ V s         . . . . . . . . . . . . . . . . . . ",
". . . . . . . . . . . . . . . . . . . . . . O + @ # $ $ $ $ $ $ $ $ $ $ $ $ # @ V s         . . . . . . . . . . . . . . . . . . ",
". . . . . . . . . . . . . . . . . . . . . . . . . . . . . .                                 . . . . . . . . . . . . . . . . . . ",
". . . . . . . . . . . . . . . . . . . . . . . . . . . . . .                                 . . . . . . . . . . . . . . . . . . ",
"    . . . . . . . . . . . .                 . . . . . . . . . . . . . . . . . . . . . . . . . . . . . . . .                     ",
"    . . . . . . . . . . . .                 . . . . . . . . . . . . . . . . . . . . . . . . . . . . . . . .                     ",
"    . . . . . . . . . . . .                 . . . . . . . . . . . . . . . . . . . . . . . . . . . . . . . .                     ",
"    . . . . . . . . . . . .                 . . . . . . . . . . . . . . . . . . . . . . . . . . . . . . . .                     ",
"    . . . . . . . . . . . . . . . .         . . . . . . . . . . . . . . . . . . . . . . . . . . . . . . . .         . . . . . . ",
"    . . . . . . . . . . . . . . . .         . . . . . . . . . . . . . . . . . . . . . . . . . . . . . . . .         . . . . . . ",
"    . . . . . . . . . . . . . . . .         . . . . . . . . . . . . . . . . . . . . . . . . . . . . . . . .         . . . . . . ",
"    . . . . . . . . . . . . . . . .         . . . . . . . . . . . . . . . . . . . . . . . . . . . . . . . .         . . . . . . ",
"    . . . . . . . . . . . . . . . .         . . . . . . . . . . . . . . . . . . . . . . . . . . . . . . . .         . . . . . . ",
"    . . . . . . . . . . . . . . . .         . . . . . . . . . . . . . . . . . . . . . . . . . . . . . . . .         . . . . . . "
};
