/* XPM */
static char *_38284fe69654918a6c8185ddc46f666ZgtXN1LXSLJGVMTr[] = {
/* columns rows colors chars-per-pixel */
"16 16 5 1 ",
"  c None",
". c #231C19",
"X c #D89E58",
"o c #B66B3A",
"O c #67332D",
/* pixels */
"                ",
"                ",
"  ..        ..  ",
" .XX.      .XX. ",
" .Xo.      .oX. ",
" .Xo........oX. ",
" .Xo.XXXXoO.oX. ",
" .Xo........oX. ",
" .Xo.      .oX. ",
" .Oo........oO. ",
" .Oo.ooooOO.oO. ",
" .Oo........oO. ",
" .OO.      .OO. ",
"  ..        ..  ",
"                ",
"                "
};
