/* XPM */
static char *_65acc7ad6f549a4b4356967058fb365V4cNHYDV8lck7T9R[] = {
/* columns rows colors chars-per-pixel */
"16 16 5 1 ",
"  c None",
". c #242B33",
"X c #AEB4CE",
"o c #636B85",
"O c #3D4857",
/* pixels */
"  ............  ",
" .XXXXXXXXXXXX. ",
".XXXoXXXooooXXX.",
".XXooXXXoooooXX.",
".XoooXXXoXXoooX.",
".XoXoooooXXoooX.",
".XooooooooooooX.",
".XooOOooooooXoX.",
".OooOOoXXoooooO.",
".OoooooXXoooooO.",
".OoOoooooooooOO.",
".OoooooooOOoooO.",
".OooOOoooOOoOoO.",
".OooOOooooooooO.",
" .OOOOOOOOOOOO. ",
"  ............  "
};
