/* XPM */
static char *e3a7e8a942fa438ddfc017502cddbee8DWjs5Ao2di2WSqkB[] = {
/* columns rows colors chars-per-pixel */
"64 64 225 2 ",
"   c #818181",
".  c #808080",
"X  c #7F8080",
"o  c #636569",
"O  c #32383E",
"+  c #242B33",
"@  c #3F454C",
"#  c #777B7F",
"$  c #8B8C8D",
"%  c #8A8B8C",
"&  c #7B7D7F",
"*  c #767A7F",
"=  c #969798",
"-  c #89898A",
";  c #A7A8A9",
":  c #9B9DA1",
">  c #767B82",
",  c #4B515A",
"<  c #353C46",
"1  c #333943",
"2  c #2E353F",
"3  c #2A313A",
"4  c #262D35",
"5  c #A0A3A7",
"6  c #898A8A",
"7  c #898989",
"8  c #A5A7A8",
"9  c #A2A5AA",
"0  c #8D9198",
"q  c #777D87",
"w  c #626875",
"e  c #575E6D",
"r  c #515765",
"t  c #444B57",
"y  c #373E48",
"u  c #8F9193",
"i  c #858686",
"p  c #9B9C9E",
"a  c #878B8F",
"s  c #787E8C",
"d  c #797F91",
"f  c #7A8093",
"g  c #6F7587",
"h  c #59606F",
"j  c #787C82",
"k  c #818282",
"l  c #848484",
"z  c #979899",
"x  c #878A8E",
"c  c #575C63",
"v  c #9197AC",
"b  c #9CA2BA",
"n  c #8D93A9",
"m  c #696C70",
"M  c #808181",
"N  c #969697",
"B  c #9EA1A5",
"V  c #434956",
"C  c #5F6575",
"Z  c #7A8195",
"A  c #969DB5",
"S  c #A4AAC4",
"D  c #A5ACC6",
"F  c #A8AEC8",
"G  c #AAB0CA",
"H  c #ACB2CC",
"J  c #AEB4CE",
"K  c #949BB3",
"L  c #757C8F",
"P  c #565D6C",
"I  c #363E49",
"U  c #262E36",
"Y  c #252D35",
"T  c #252C34",
"R  c #474D54",
"E  c #7A7B7E",
"W  c gray51",
"Q  c #8E8F90",
"!  c #9B9EA1",
"~  c #6D7487",
"^  c #7C8298",
"/  c #8A91A9",
"(  c #9198B2",
")  c #959CB6",
"_  c #9CA2BC",
"`  c #A3A9C3",
"'  c #858CA4",
"]  c #6C7387",
"[  c #535A6B",
"{  c #39424E",
"}  c #2C343E",
"|  c #29313B",
" . c #272F38",
".. c #3D454E",
"X. c #64696F",
"o. c #7F8182",
"O. c #7C7E80",
"+. c #7D849B",
"@. c #7E859E",
"#. c #7F86A0",
"$. c #848CA6",
"%. c #9097B1",
"&. c #757D95",
"*. c #626A7F",
"=. c #4F586A",
"-. c #3D4654",
";. c #313A46",
":. c #2D3641",
">. c #3B4450",
",. c #4C545D",
"<. c #676B71",
"1. c #7B7C7E",
"2. c #444A50",
"3. c #727993",
"4. c #6C748E",
"5. c #747C96",
"6. c #666E86",
"7. c #596277",
"8. c #4C5668",
"9. c #404A59",
"0. c #37414E",
"q. c #3A4451",
"w. c #4C5158",
"e. c #616468",
"r. c #747576",
"t. c #6B728C",
"y. c #68708A",
"u. c #666E88",
"i. c #646C86",
"p. c #5E667F",
"a. c #545D73",
"s. c #4B5568",
"d. c #414C5C",
"f. c #394452",
"g. c #333D49",
"h. c #2D3540",
"j. c #272E37",
"k. c #2C3239",
"l. c #363C42",
"z. c #7B829C",
"x. c #6D758F",
"c. c #8C92AC",
"v. c #8087A1",
"b. c #626A84",
"n. c #616982",
"m. c #606881",
"M. c #5E677F",
"N. c #636B85",
"B. c #5A627A",
"V. c #515B70",
"C. c #495366",
"Z. c #414B5C",
"A. c #5D667E",
"S. c #565F75",
"D. c #455061",
"F. c #3F4A5A",
"G. c #4E576B",
"H. c #424C5D",
"J. c #3E4959",
"K. c #3D4857",
"L. c #3E4858",
"P. c #313945",
"I. c #2A323C",
"U. c #3C4756",
"Y. c #3B4655",
"T. c #3B4554",
"R. c #3A4453",
"E. c #475163",
"W. c #404959",
"Q. c #38414F",
"!. c #394351",
"~. c #343E4B",
"^. c #50596E",
"/. c #485163",
"(. c #333C48",
"). c #2F3843",
"_. c #596279",
"`. c #666E87",
"'. c #767E97",
"]. c #878EA7",
"[. c #979EB7",
"{. c #3E454D",
"}. c #5A6379",
"|. c #666E84",
" X c #727A90",
".X c #7D859B",
"XX c #5D636B",
"oX c #6E7379",
"OX c #9C9EA0",
"+X c #ABAEB1",
"@X c #4E586B",
"#X c #555F72",
"$X c #5C6679",
"%X c #636D80",
"&X c #7D8288",
"*X c #999B9F",
"=X c #97989A",
"-X c #878788",
";X c #838383",
":X c gray64",
">X c #CCCED0",
",X c #424D5D",
"<X c #454F60",
"1X c #475262",
"2X c #495464",
"3X c #6F7379",
"4X c #96989B",
"5X c #8E8F8F",
"6X c #989899",
"7X c #ABAEAF",
"8X c #85888B",
"9X c gray54",
"0X c #A3A5A8",
"qX c #85898C",
"wX c #A3A5A6",
"eX c #9B9EA2",
"rX c #989A9D",
"tX c #A5A6A7",
"yX c #9DA0A4",
"uX c #9A9DA0",
"iX c #8B8C8C",
"pX c #959698",
"aX c #959798",
"sX c #42484E",
"dX c #868687",
/* pixels */
"            . . X o O + + + + + + + + + + + + + + + + + + + + + + + + + + + + + + + + + + + + + + + + + + + @ # $ .             ",
"            . % & @ + + + + + + + + + + + + + + + + + + + + + + + + + + + + + + + + + + + + + + + + + + + + @ * =               ",
"          - ; : > , < < < < < < < < < < < < < < < < 1 2 3 4 + + + + + + + + 4 3 2 1 < < < < < < < < < < < < , > 5 6 . . . . . . ",
"        7 8 9 0 q w e e e e e e e e e e e e e e e e r t y 3 + + + + + + + + 3 y t r e e e e e e e e e e e e w q 0 u   . . . . . ",
"      i p a > q s d f f f f f f f f f f f f f f f f g h t 2 + + + + + + + + 2 t h g f f f f f f f f f f f f d s q j k . . . . . ",
"    l z x c , w d v b b b b b b b b b b b b b b b b n g r 1 + + + + + + + + 1 r g n b b b b b b b b b b b b v d w , m M . . . . ",
".   N B > , V C Z A S S S S D F G H J J J J H G F D K L P I U Y T + 4 3 2 1 V C Z A D F G H J J J J H G F D K L P I R E . . . . ",
"W Q ! 0 q w C ~ ^ / ( ( ( ( ) _ ` G J J J J G ` _ ) ' ] [ { } |  .T 3 y t r C ~ ^ / ) _ ` G J J J J G ` _ ) ' ] [ { ..X.o.  . . ",
"O.# > q s d Z ^ +.@.#.#.#.#.$.%._ F J J J J F _ %.$.&.*.=.-.;.:.| Y 2 t h g Z ^ +.@.$.%._ F J J J J F _ %.$.&.*.=.-.>.,.<.1.. . ",
"2.@ , w d v A / @.3.4.4.4.4.5.$.) D J J J J D ) $.5.6.7.8.9.0.;.} U 1 r g n A / @.3.5.$.) D J J J J D ) $.5.6.7.8.9.q.>...w.e.r.",
"+ + < e f b D ) $.5.t.y.u.i.4.#.( S J J J J S ( #.4.p.a.s.d.f.g.h.j.< e f b S ( #.4.4.#.( S J J J J S ( #.4.p.a.s.d.f.g.h.j.k.l.",
"+ + < e f b F _ %.$.z.5.x.u.4.#.( S J J J J S ( #.4.p.a.s.d.f.g.h.j.< e f b S ( #.4.4.#.( S J J J J S ( #.4.p.a.s.d.f.g.h.j.+ + ",
"+ + < e f b G ` _ ) c.v.5.y.4.#.( S J J J J S ( #.4.p.a.s.d.f.g.h.j.< e f b S ( #.4.4.#.( S J J J J S ( #.4.p.a.s.d.f.g.h.j.+ + ",
"+ + < e f b H G F D _ c.z.t.4.#.( S J J J J S ( #.4.p.a.s.d.f.g.h.j.< e f b S ( #.4.4.#.( S J J J J S ( #.4.p.a.s.d.f.g.h.j.+ + ",
"+ + < e f b H G F D _ c.z.t.t.z.c._ S S S S _ c.z.t.p.a.s.d.f.g.h.j.< e f b S ( #.4.t.z.c._ S S S S _ c.z.t.p.a.s.d.f.g.h.j.+ + ",
"+ + < e f b G ` _ ) c.v.5.y.y.5.v.c.( ( ( ( c.v.5.y.p.a.s.d.f.g.h.j.< e f b S ( #.4.y.5.v.c.( ( ( ( c.v.5.y.p.a.s.d.f.g.h.j.+ + ",
"+ + < e f b F _ %.$.z.5.x.u.u.x.5.z.#.#.#.#.z.5.x.u.p.a.s.d.f.g.h.j.< e f b S ( #.4.u.x.5.z.#.#.#.#.z.5.x.u.p.a.s.d.f.g.h.j.+ + ",
"+ + < e f b D ) $.5.t.y.u.i.i.u.y.t.4.4.4.4.t.y.u.i.p.a.s.d.f.g.h.j.< e f b S ( #.4.i.u.y.t.4.4.4.4.t.y.u.i.p.a.s.d.f.g.h.j.+ + ",
"+ + < e f b S ( #.4.b.n.m.M.p.p.p.p.M.m.n.b.N.N.N.N.p.a.s.d.f.g.h.j.1 r g n A / @.3.t.y.u.i.N.N.N.N.b.n.m.M.B.V.C.Z.f.g.h.j.+ + ",
"+ + < e f b S ( #.4.n.A.B.S.a.a.a.a.S.B.A.n.N.N.N.N.p.a.s.d.f.g.h.j.2 t h g Z ^ +.@.z.5.x.u.N.N.N.N.n.A.B.S.V.s.D.F.f.g.h.j.+ + ",
"+ + < e f b S ( #.4.m.B.a.G.s.s.s.s.G.a.B.m.N.N.N.N.p.a.s.d.f.g.h.j.3 y t r C ~ ^ / c.v.5.y.N.N.N.N.m.B.a.G.C.D.H.J.f.g.h.j.+ + ",
"+ + < e f b S ( #.4.M.S.G.D.d.d.d.d.D.G.S.M.N.N.N.N.p.a.s.d.f.g.h.j.4 3 2 1 V C Z A _ c.z.t.N.N.N.N.M.S.G.D.Z.F.J.K.f.g.h.j.+ + ",
"+ + < e f b S ( #.4.p.a.s.d.K.K.K.K.d.s.a.p.N.N.N.N.M.S.G.D.L.0.P.I.U Y T + 1 r g n K ' &.6.p.p.p.p.B.V.C.Z.U.Y.T.R.0.;.} U + + ",
"+ + < e f b S ( #.4.p.a.s.d.K.K.K.K.d.s.a.p.N.N.N.N.m.B.a.G.E.W.Q.P.} |  .T 2 t h g L ] *.7.a.a.a.a.V.s.D.F.Y.!.0.~.;.:.| Y + + ",
"+ + < e f b S ( #.4.p.a.s.d.K.K.K.K.d.s.a.p.N.N.N.N.n.A.B.S.^./.W.0.;.:.| Y 3 y t r P [ =.8.s.s.s.s.C.D.H.J.T.0.(.).} |  .T + + ",
"+ + < e f b S ( #.4.p.a.s.d.K.K.K.K.d.s.a.p.N.N.N.N.b.n.m.M._.^.E.L.0.;.} U 4 3 2 1 I { -.9.d.d.d.d.Z.F.J.K.R.~.).| U Y T + + + ",
"+ + < e f b S ( #.4.M.S.G.D.d.d.d.d.D.G.S.M.b.n.m.M.M.m.n.b.p.a.s.d.f.g.h.j.+ + + + U } ;.0.f.f.f.f.f.f.f.f.0.;.} U + + + + + + ",
"+ + < e f b S ( #.4.m.B.a.G.s.s.s.s.G.a.B.m.n.A.B.S.S.B.A.n.p.a.s.d.f.g.h.j.+ + + + Y | :.;.g.g.g.g.g.g.g.g.;.:.| Y + + + + + + ",
"+ + < e f b S ( #.4.n.A.B.S.a.a.a.a.S.B.A.n.m.B.a.G.G.a.B.m.p.a.s.d.f.g.h.j.+ + + + T  .| } h.h.h.h.h.h.h.h.} |  .T + + + + + + ",
"+ + < e f b S ( #.4.b.n.m.M.p.p.p.p.M.m.n.b.M.S.G.D.D.G.S.M.p.a.s.d.f.g.h.j.+ + + + + T Y U j.j.j.j.j.j.j.j.U Y T + + + + + + + ",
"+ + 1 r g n K ' &.6.p.p.p.p.p.p.p.p.p.p.p.p.B.V.C.Z.Z.C.V.B._.^.E.L.0.;.} U + + + + 4 3 2 1 < < < < < < < < 1 2 3 4 + + + + + + ",
"+ + 2 t h g L ] *.7.a.a.a.a.a.a.a.a.a.a.a.a.V.s.D.F.F.D.s.V.^./.W.0.;.:.| Y + + + + 3 y t r e e e e e e e e r t y 3 + + + + + + ",
"+ + 3 y t r P [ =.8.s.s.s.s.s.s.s.s.s.s.s.s.C.D.H.J.J.H.D.C.E.W.Q.P.} |  .T + + + + 2 t h g f f f f f f f f g h t 2 + + + + + + ",
"+ + 4 3 2 1 I { -.9.d.d.d.d.d.d.d.d.d.d.d.d.Z.F.J.K.K.J.F.Z.L.0.P.I.U Y T + + + + + 1 r g n b b b b b b b b n g r 1 + + + + + + ",
"+ + + + + + U } ;.0.f.f.f.f.f.f.f.f.f.f.f.f.f.f.f.f.f.f.f.f.0.;.} U + + + + 4 3 2 1 V C Z A S S S S S S S S K L P I U Y T + + + ",
"+ + + + + + Y | :.;.g.g.g.g.g.g.g.g.g.g.g.g.g.g.g.g.g.g.g.g.;.:.| Y + + + + 3 y t r C ~ ^ / ( ( ( ( ( ( ( ( ' ] [ { } |  .T + + ",
"+ + + + + + T  .| } h.h.h.h.h.h.h.h.h.h.h.h.h.h.h.h.h.h.h.h.} |  .T + + + + 2 t h g Z ^ +.@.#.#.#.#.#.#.#.#.&.*.=.-.;.:.| Y + + ",
"+ + + + + + + T Y U j.j.j.j.j.j.j.j.j.j.j.j.j.j.j.j.j.j.j.j.U Y T + + + + + 1 r g n A / @.3.4.4.4.4.4.4.4.4.6.7.8.9.0.;.} U + + ",
"+ + + + + + 4 3 2 1 < < < < < < < < < < < < < < < < 1 2 3 4 + + + + + + + + < e f b S ( #.4.b.n.m.M.p.p.p.p.B.V.C.Z.f.g.h.j.+ + ",
"+ + + + + + 3 y t r e e e e e e e e e e e e e e e e r t y 3 + + + + + + + + < e f b S ( #.4.n.A.B.S.a.a.a.a.V.s.D.F.f.g.h.j.+ + ",
"+ + + + + + 2 t h g f f f f f f f f f f f f f f f f g h t 2 + + + + + + + + < e f b S ( #.4.m.B.a.G.s.s.s.s.C.D.H.J.f.g.h.j.+ + ",
"+ + + + + + 1 r g n b b b b b b b b b b b b b b b b n g r 1 + + + + + + + + < e f b S ( #.4.M.S.G.D.d.d.d.d.Z.F.J.K.f.g.h.j.+ + ",
"+ + 4 3 2 1 V C Z A D F G H J J J J H G F D S S S S K L P I U Y T + + + + + < e f b S ( #.4.p.a.s.d.K.K.K.K.K.K.K.K.f.g.h.j.+ + ",
"+ + 3 y t r C ~ ^ / ) _ ` G J J J J G ` _ ) ( ( ( ( ' ] [ { } |  .T + + + + < e f b S ( #.4.p.a.s.d.K.K.K.K.K.K.K.K.f.g.h.j.+ + ",
"+ + 2 t h g Z ^ +.@.$.%._ F J J J J F _ %.$.#.#.#.#.&.*.=.-.;.:.| Y + + + + < e f b S ( #.4.p.a.s.d.K.K.K.K.K.K.K.K.f.g.h.j.+ + ",
"+ + 1 r g n A / @.3.5.$.) D J J J J D ) $.5.4.4.4.4.6.7.8.9.0.;.} U + + + + < e f b S ( #.4.p.a.s.d.K.K.K.K.K.K.K.K.f.g.h.j.+ + ",
"+ + < e f b S ( #.4.4.#.( S J J J J S ( #.4.b.n.m.M.B.V.C.Z.f.g.h.j.4 3 2 1 V C Z A _ c.z.t.M.S.G.D.d.d.d.d.Z.F.J.K.f.g.h.j.+ + ",
"+ + < e f b S ( #.4.4.#.( S J J J J S ( #.4.n.A.B.S.V.s.D.F.f.g.h.j.3 y t r C ~ ^ / c.v.5.y.m.B.a.G.s.s.s.s.C.D.H.J.f.g.h.j.+ + ",
"+ + < e f b S ( #.4.4.#.( S J J J J S ( #.4.m.B.a.G.C.D.H.J.f.g.h.j.2 t h g Z ^ +.@.z.5.x.u.n.A.B.S.a.a.a.a.V.s.D.F.f.g.h.j.+ + ",
"+ + < e f b S ( #.4.4.#.( S J J J J S ( #.4.M.S.G.D.Z.F.J.K.f.g.h.j.1 r g n A / @.3.t.y.u.i.b.n.m.M.p.p.p.p.B.V.C.Z.f.g.h.j.+ + ",
"+ + < e f b S ( #.4.t.z.c._ S S S S _ c.z.t.M.S.G.D.Z.F.J.K.f.g.h.j.< e f b S ( #.4.i.u.y.t.t.y.u.i.b.n.m.M.B.V.C.Z.f.g.h.j.+ + ",
"+ + < e f b S ( #.4.y.5.v.c.( ( ( ( c.v.5.y.m.B.a.G.C.D.H.J.f.g.h.j.< e f b S ( #.4.u.x.5.z.z.5.x.u.n.A.B.S.V.s.D.F.f.g.h.j.+ + ",
"+ + < e f b S ( #.4.u.x.5.z.#.#.#.#.z.5.x.u.n.A.B.S.V.s.D.F.f.g.h.j.< e f b S ( #.4.y.5.v.c.c.v.5.y.m.B.a.G.C.D.H.J.f.g.h.j.+ + ",
"+ + < e f b S ( #.4.i.u.y.t.4.4.4.4.t.y.u.i.b.n.m.M.B.V.C.Z.f.g.h.j.< e f b S ( #.4.t.z.c._ _ c.z.t.M.S.G.D.Z.F.J.K.f.g.h.j.+ + ",
"@ @ , w d v K ' &.6.p.p.p.p.p.p.p.p.p.p.p.p.p.p.p.p._.^.E.L.0.;.} U 1 r g n K ' &.6.`.'.].[.[.].'.`.B.V.C.Z.U.Y.T.R.q.>...{.@ @ ",
"* * > q s d L ] *.7.a.a.a.a.a.a.a.a.a.a.a.a.a.a.a.a.^./.W.0.;.:.| Y 2 t h g L ] *.7.}.|. X.X.X X|.}.V.s.D.F.Y.!.0.~.>.,.XXoX* * ",
"OX+X9 0 q w P [ =.8.s.s.s.s.s.s.s.s.s.s.s.s.s.s.s.s.E.W.Q.P.} |  .T 3 y t r P [ =.8.@X#X$X%X%X$X#X@XC.D.H.J.T.0.(.)...XX&X*X=X-X",
";X:X>X9 > , I { -.9.d.d.d.d.d.d.d.d.d.d.d.d.d.d.d.d.L.0.P.I.U Y T + 4 3 2 1 I { -.9.,X<X1X2X2X1X<X,XZ.F.J.K.R.~.).| {.3X4X5X    ",
"    6X7Xa c {...>.q.f.f.f.f.f.f.f.f.f.f.f.f.f.f.f.f.0.;.} U + + + + + + + + U } ;.0.f.f.f.f.f.f.f.f.f.f.f.f.q.>...{.c 8Xl . . . ",
"    . 9X0Xa oXXX,.>.g.g.g.g.g.g.g.g.g.g.g.g.g.g.g.g.;.:.| Y + + + + + + + + Y | :.;.g.g.g.g.g.g.g.g.g.g.g.g.>.,.XXoXqXW . . . . ",
"    . . l wXeX&XXX..h.h.h.h.h.h.h.h.h.h.h.h.h.h.h.h.} |  .T + + + + + + + + T  .| } h.h.h.h.h.h.h.h.h.h.h.h...XX&XrXl . . . . . ",
"    . . . ;XtXyXoX{.j.j.j.j.j.j.j.j.j.j.j.j.j.j.j.j.U Y T + + + + + + + + + + T Y U j.j.j.j.j.j.j.j.j.j.j.j.{.oXuXiX. . . . . . ",
"    . . . . W pX# @ + + + + + + + + + + + + + + + + + + + + + + + + + + + + + + + + + + + + + + + + + + + + @ * aX  . . . . . . ",
"    . . . . . W & sX+ + + + + + + + + + + + + + + + + + + + + + + + + + + + + + + + + + + + + + + + + + + + @ * dX  . . . . . . "
};
